X:4
T: Willie was a Wanton Wag
N: HA004
O: Europa, Mitteleuropa, Deutschland
N: keine Vorschläge
M: 2/2
L: 1/16
K: C
C2 | E2G2G2ABc3ec2
G2 | E2C2C2e2d3cA3
G | E2G2G2ABc3ec2
G2 | E2C2C2e2d3eF2
f2 | e2g2d2e2c3de2
c2 | e2g2d2e2d3cA2
f2 | e2g2d2e2c3de3
f | c2C2C2e2d3ec2

